!!!COM: Bohuslav (Jan) Martinů
!!!OTL: [T495_Mau-22/1/1-9]
**kern	**dynam	**kern	**dynam	**kern	**dynam	**kern	**dynam
*grp:A	*grp:A	*grp:A	*grp:A	*grp:A	*grp:A	*grp:B	*grp:B
*part4	*part4	*part3	*part3	*part2	*part2	*part1	*part1
*staff4	*	*staff3	*	*staff2	*	*staff1	*
*I"Violoncello	*	*I"Viola	*	*I"Violin II	*	*I"Violin I	*
*I'Vc.	*	*I'Vla.	*	*I'Vln. II	*	*I'Vln. I	*
*clefF4	*	*clefC3	*	*clefG2	*	*clefG2	*
*k[]	*	*k[]	*	*k[]	*	*k[]	*
*C:	*	*C:	*	*C:	*	*C:	*
*M4/4	*	*M4/4	*	*M4/4	*	*M4/4	*
=1	=1	=1	=1	=1	=1	=1	=1
!LO:TX:a:t=pizz.	!	!	!	!	!	!LO:TX:t=Allegro [quarter]=120	!
4CC: 4AA-X: 4E: 4An:	pp	4r	.	1r	[	1r	.
!	!	!LO:TX:a:t=col legno poco marcato	!	!	!	!	!
4r	.	8F'L 8B-X	pp	.	.	.	.
.	.	8F'J 8B-	.	.	.	.	.
4CC: 4AA-: 4E: 4A:	.	8r'	.	.	.	.	.
.	.	8E' 8A	.	.	.	.	.
4r	.	8r'	.	.	.	.	.
.	.	8E' 8A	.	.	.	.	.
=2	=2	=2	=2	=2	=2	=2	=2
!	!	!	!	!LO:TX:a:t=con sord quasi	!	!	!
4CC: 4AA-X: 4E-X: 4An:	.	4r	.	2r	.	1r	.
4r	.	8F'L 8B-X	.	.	.	.	.
.	.	8F'J 8B-	.	.	.	.	.
*	*	*	*	*tremolo	*	*	*
4CC: 4AA-: 4E-: 4A:	.	8r'	.	(64BLLLLtt	pp	.	.
.	.	.	.	64c#Xt	.	.	.
.	.	.	.	64B	.	.	.
.	.	.	.	64c#Xt	.	.	.
.	.	.	.	64B	.	.	.
.	.	.	.	64c#Xt	.	.	.
.	.	.	.	64B	.	.	.
.	.	.	.	64c#Xt	.	.	.
.	.	8E' 8A	.	64B	.	.	.
.	.	.	.	64c#Xt	.	.	.
.	.	.	.	64B	.	.	.
.	.	.	.	64c#Xt	.	.	.
.	.	.	.	64B	.	.	.
.	.	.	.	64c#Xt	.	.	.
.	.	.	.	64B	.	.	.
.	.	.	.	64c#Xt	.	.	.
4r	.	8r'	.	64Bt	.	.	.
.	.	.	.	64c#Xt	.	.	.
.	.	.	.	64B	.	.	.
.	.	.	.	64c#Xt	.	.	.
.	.	.	.	64B	.	.	.
.	.	.	.	64c#Xt	.	.	.
.	.	.	.	64B	.	.	.
.	.	.	.	64c#Xt	.	.	.
.	.	8E' 8A	.	64B	.	.	.
.	.	.	.	64c#Xt	.	.	.
.	.	.	.	64B	.	.	.
.	.	.	.	64c#Xt	.	.	.
.	.	.	.	64B	.	.	.
.	.	.	.	64c#Xt	.	.	.
.	.	.	.	64B	.	.	.
.	.	.	.	(64c#XtJJJJ)	.	.	.
=3	=3	=3	=3	=3	=3	=3	=3
4CC: 4AA-X: 4En: 4An:	.	4r	.	64BLLLL)	.	4r	.
.	.	.	.	64c#X	.	.	.
.	.	.	.	64B	.	.	.
.	.	.	.	64c#X	.	.	.
.	.	.	.	64B	.	.	.
.	.	.	.	64c#X	.	.	.
.	.	.	.	64B	.	.	.
.	.	.	.	64c#X	.	.	.
.	.	.	.	64B	.	.	.
.	.	.	.	64c#X	.	.	.
.	.	.	.	64B	.	.	.
.	.	.	.	64c#X	.	.	.
.	.	.	.	64B	.	.	.
.	.	.	.	64c#X	.	.	.
.	.	.	.	64B	.	.	.
.	.	.	.	64c#X	.	.	.
4r	.	8F'L 8B-X	.	64B	.	8r	.
.	.	.	.	64c#X	.	.	.
.	.	.	.	64B	.	.	.
.	.	.	.	64c#X	.	.	.
.	.	.	.	64B	.	.	.
.	.	.	.	64c#X	.	.	.
.	.	.	.	64B	.	.	.
.	.	.	.	64c#X	.	.	.
.	.	8F'J 8B-	.	64B	.	16c'LL	pp
.	.	.	.	64c#X	.	.	.
.	.	.	.	64B	.	.	.
.	.	.	.	64c#X	.	.	.
.	.	.	.	64B	.	16G'JJ	.
.	.	.	.	64c#X	.	.	.
.	.	.	.	64B	.	.	.
.	.	.	.	64c#X	.	.	.
4CC: 4AA-: 4E: 4A:	.	8r'	.	64B	.	16c'LL	.
.	.	.	.	64c#X	.	.	.
.	.	.	.	64B	.	.	.
.	.	.	.	64c#X	.	.	.
.	.	.	.	64B	.	16c'	.
.	.	.	.	64c#X	.	.	.
.	.	.	.	64B	.	.	.
.	.	.	.	64c#X	.	.	.
.	.	8E' 8A	.	64B	.	16c'	.
.	.	.	.	64c#X	.	.	.
.	.	.	.	64B	.	.	.
.	.	.	.	64c#X	.	.	.
.	.	.	.	64B	.	16G'JJ	.
.	.	.	.	64c#X	.	.	.
.	.	.	.	64B	.	.	.
.	.	.	.	64c#X	.	.	.
4r	.	8r'	.	64B	.	8c'L	.
.	.	.	.	64c#X	.	.	.
.	.	.	.	64B	.	.	.
.	.	.	.	64c#X	.	.	.
.	.	.	.	64B	.	.	.
.	.	.	.	64c#X	.	.	.
.	.	.	.	64B	.	.	.
.	.	.	.	64c#X	.	.	.
.	.	8E' 8A	.	64B	.	16c'L	.
.	.	.	.	64c#X	.	.	.
.	.	.	.	64B	.	.	.
.	.	.	.	64c#X	.	.	.
.	.	.	.	64B	.	16B-X'JJ	.
.	.	.	.	64c#X	.	.	.
.	.	.	.	64B	.	.	.
.	.	.	.	(64c#XJJJJ	.	.	.
!!linebreak:original
=4	=4	=4	=4	=4	=4	=4	=4
4CC: 4AA-X: 4E-X: 4An:	pp	4r	.	(64BLLLL)	.	16A'LL	.
.	.	.	.	64c#X	.	.	.
.	.	.	.	64B	.	.	.
.	.	.	.	64c#X	.	.	.
.	.	.	.	64B	.	16G'J	.
.	.	.	.	64c#X	.	.	.
.	.	.	.	64B	.	.	.
.	.	.	.	64c#X	.	.	.
.	.	.	.	64B	.	8c'J	.
.	.	.	.	64c#X	.	.	.
.	.	.	.	64B	.	.	.
.	.	.	.	64c#X	.	.	.
.	.	.	.	64B	.	.	.
.	.	.	.	64c#X	.	.	.
.	.	.	.	64B	.	.	.
.	.	.	.	64c#X)JJJJ	.	.	.
4r	.	8F'L 8B-X	.	(64c#LLLL	.	16dLL	.
.	.	.	.	64d#X	.	.	.
.	.	.	.	64c#	.	.	.
.	.	.	.	64d#X	.	.	.
.	.	.	.	64c#	.	16d	.
.	.	.	.	64d#X	.	.	.
.	.	.	.	64c#	.	.	.
.	.	.	.	64d#X	.	.	.
.	.	8F'J 8B-	.	64c#	.	16d	.
.	.	.	.	64d#X	.	.	.
.	.	.	.	64c#	.	.	.
.	.	.	.	64d#X	.	.	.
.	.	.	.	64c#	.	16BnJJ	<
.	.	.	.	64d#X	.	.	.
.	.	.	.	64c#	.	.	.
.	.	.	.	64d#X	.	.	.
4CC: 4AA-: 4E-: 4A:	.	8r'	.	64c#	.	16e-XLL	.
.	.	.	.	64d#X	.	.	.
.	.	.	.	64c#	.	.	.
.	.	.	.	64d#X	.	.	.
.	.	.	.	64c#	.	16cJ	.
.	.	.	.	64d#X	.	.	.
.	.	.	.	64c#	.	.	.
.	.	.	.	64d#X	.	.	.
.	.	8E' 8A	.	64c#	.	8fJ	[
.	.	.	.	64d#X	.	.	.
.	.	.	.	64c#	.	.	.
.	.	.	.	64d#X	.	.	.
.	.	.	.	64c#	.	.	.
.	.	.	.	64d#X	.	.	.
.	.	.	.	64c#	.	.	.
.	.	.	.	64d#X)JJJJ	.	.	.
4r	.	8r'	.	(64eLLLL	.	16d'KL	.
.	.	.	.	64f#X	.	.	.
.	.	.	.	64e	.	.	.
.	.	.	.	64f#X	.	.	.
.	.	.	.	64e	.	8f~	.
.	.	.	.	64f#X	.	.	.
.	.	.	.	64e	.	.	.
.	.	.	.	64f#X	.	.	.
.	.	8E' 8A	.	64e	.	.	.
.	.	.	.	64f#X	.	.	.
.	.	.	.	64e	.	.	.
.	.	.	.	64f#X	.	.	.
.	.	.	.	64e	.	16c#X'Jk	.
.	.	.	.	64f#X	.	.	.
.	.	.	.	64e	.	.	.
.	.	.	.	64f#XJJJJ	.	.	.
!!LO:REH:t=5
=5	=5	=5	=5	=5	=5	=5	=5
4CC: 4AA-X: 4E-X: 4An:	.	4r	.	(64eLLLL)	.	8e'L	.
.	.	.	.	64f#X	.	.	.
.	.	.	.	64e	.	.	.
.	.	.	.	64f#X	.	.	.
.	.	.	.	64e	.	.	.
.	.	.	.	64f#X	.	.	.
.	.	.	.	64e	.	.	.
.	.	.	.	64f#X	.	.	.
.	.	.	.	64e	.	16dL	<
.	.	.	.	64f#X	.	.	.
.	.	.	.	64e	.	.	.
.	.	.	.	64f#X	.	.	.
.	.	.	.	64e	.	16fJJ	.
.	.	.	.	64f#X	.	.	.
.	.	.	.	64e	.	.	.
.	.	.	.	64f#X	.	.	.
4r	.	8F'L 8B-X	.	64e	.	16c#XLL	.
.	.	.	.	64f#X	.	.	.
.	.	.	.	64e	.	.	.
.	.	.	.	64f#X	.	.	.
.	.	.	.	64e	.	[16e^J	p [
.	.	.	.	64f#X	.	.	.
.	.	.	.	64e	.	.	.
.	.	.	.	64f#X	.	.	.
.	.	8F'J 8B-	.	64e	.	8eJ_	.
.	.	.	.	64f#X	.	.	.
.	.	.	.	64e	.	.	.
.	.	.	.	64f#X	.	.	.
.	.	.	.	64e	.	.	.
.	.	.	.	64f#X	.	.	.
.	.	.	.	64e	.	.	.
.	.	.	.	64f#X)JJJJ	.	.	.
4CC: 4AA-: 4E-: 4A:	<	8r'	.	(64f#LLLL	<	8eL]	.
.	.	.	.	64g#X	.	.	.
.	.	.	.	64f#	.	.	.
.	.	.	.	64g#X	.	.	.
.	.	.	.	64f#	.	.	.
.	.	.	.	64g#X	.	.	.
.	.	.	.	64f#	.	.	.
.	.	.	.	64g#X	.	.	.
.	.	8E' 8A	<	64f#	.	16aL	.
.	.	.	.	64g#X	.	.	.
.	.	.	.	64f#	.	.	.
.	.	.	.	64g#X	.	.	.
.	.	.	.	64f#	.	16eJJ	.
.	.	.	.	64g#X	.	.	.
.	.	.	.	64f#	.	.	.
.	.	.	.	64g#X	.	.	.
4r	.	8r'	.	64f#	.	16gLL	.
.	.	.	.	64g#X	.	.	.
.	.	.	.	64f#	.	.	.
.	.	.	.	64g#X	.	.	.
.	.	.	.	64f#	.	16g	.
.	.	.	.	64g#X	.	.	.
.	.	.	.	64f#	.	.	.
.	.	.	.	64g#X	.	.	.
.	.	8E' 8A	.	64f#	.	16g	.
.	.	.	.	64g#X	.	.	.
.	.	.	.	64f#	.	.	.
.	.	.	.	64g#X	.	.	.
.	.	.	.	64f#	.	16eJJ	.
.	.	.	.	64g#X	.	.	.
.	.	.	.	64f#	.	.	.
.	.	.	.	(64g#X)JJJJ	.	.	.
=6	=6	=6	=6	=6	=6	=6	=6
4CC: 4AA-X: 4E-X: 4An:	.	4r	.	(64f#XLLLL)	.	16aLL	.
.	.	.	.	64g#X	.	.	.
.	.	.	.	64f#X	.	.	.
.	.	.	.	64g#X	.	.	.
.	.	.	.	64f#X	.	16g	.
.	.	.	.	64g#X	.	.	.
.	.	.	.	64f#X	.	.	.
.	.	.	.	64g#X	.	.	.
.	.	.	.	64f#X	.	16bn	.
.	.	.	.	64g#X	.	.	.
.	.	.	.	64f#X	.	.	.
.	.	.	.	64g#X	.	.	.
.	.	.	.	64f#X	.	16gJJ	<
.	.	.	.	64g#X	.	.	.
.	.	.	.	64f#X	.	.	.
.	.	.	.	64g#X)JJJJ	.	.	.
!	!	!	!	!	!LO:DY:t=poco %s	!	!
4r	[	8F'L 8B-X	[	(64b-XLLLL	mf [	16bnLL	.
.	.	.	.	64ccn	.	.	.
.	.	.	.	64b-X	.	.	.
.	.	.	.	64ccn	.	.	.
.	.	.	.	64b-X	.	16a	.
.	.	.	.	64ccn	.	.	.
.	.	.	.	64b-X	.	.	.
.	.	.	.	64ccn	.	.	.
.	.	8F'J 8B-	.	64b-X	.	16ccn	.
.	.	.	.	64ccn	.	.	.
.	.	.	.	64b-X	.	.	.
.	.	.	.	64ccn	.	.	.
.	.	.	.	64b-X	.	16aJJ	.
.	.	.	.	64ccn	.	.	.
.	.	.	.	64b-X	.	.	.
.	.	.	.	64ccn	.	.	.
!	!	!	!	!	!	!	!LO:DY:t=poco %s
4CC: 4GG: 4F#X:	mf	8r'	.	64b-X	.	8r	f [
.	.	.	.	64ccn	.	.	.
.	.	.	.	64b-X	.	.	.
.	.	.	.	64ccn	.	.	.
.	.	.	.	64b-X	.	.	.
.	.	.	.	64ccn	.	.	.
.	.	.	.	64b-X	.	.	.
.	.	.	.	64ccn	.	.	.
.	.	8E' 8A	mf	64b-X	.	16aLL	.
.	.	.	.	64ccn	.	.	.
.	.	.	.	64b-X	.	.	.
.	.	.	.	64ccn	.	.	.
.	.	.	.	64b-X	.	16ccJJ	.
.	.	.	.	64ccn	.	.	.
.	.	.	.	64b-X	.	.	.
.	.	.	.	64ccn	.	.	.
4r	.	8r'	.	64b-X	.	16aaLL	.
.	.	.	.	64ccn	.	.	.
.	.	.	.	64b-X	.	.	.
.	.	.	.	64ccn	.	.	.
.	.	.	.	64b-X	.	16b	.
.	.	.	.	64ccn	.	.	.
.	.	.	.	64b-X	.	.	.
.	.	.	.	64ccn	.	.	.
.	.	8E' 8A	.	64b-X	.	16dd	.
.	.	.	.	64ccn	.	.	.
.	.	.	.	64b-X	.	.	.
.	.	.	.	64ccn	.	.	.
.	.	.	.	64b-X	.	16aaJJ	.
.	.	.	.	64ccn	.	.	.
.	.	.	.	64b-X	.	.	.
.	.	.	.	(64ccn)JJJJ	.	.	.
!!linebreak:original
=7	=7	=7	=7	=7	=7	=7	=7
*	*	*	*	*Xtremolo	*	*	*
4CC: 4AA-X: 4E-X: 4An:	.	4r	.	4b-XT)	.	16cc#XLL	<
.	.	.	.	.	.	16eeJ	.
.	.	.	.	.	.	8aa'J	[
4r	>	8F'L 8B-X	.	(4a-XTT	>	16bb^LL	.
.	.	.	.	.	.	16bb'	.
.	.	8F'J 8B-	>	.	.	16bb'	.
.	.	.	.	.	.	16a'JJ	>
4CC: 4GG: 4F#X:	.	8r'	.	4gnt	.	8bn'L	.
.	.	8E' 8A	]	.	.	16cc#X'^L	.
.	.	.	.	.	.	16cc#'JJ	.
4r	]	8r'	.	4fT)	]	16cc#'LL	.
.	.	.	.	.	.	16B-X'J	p ]
.	.	8E' 8A	.	.	.	8cn'J	.
=8	=8	=8	=8	=8	=8	=8	=8
4CC: 4AA-X: 4E-X: 4An:	p	4r	.	(4dT	p	16d-XLL	.
.	.	.	.	.	.	16d-	>
.	.	.	.	.	.	16d-	.
.	.	.	.	.	.	16A-XJJ	.
4r	.	8F'L 8B-X	p	4cT	.	16d-LL	.
.	.	.	.	.	.	16A-	.
.	.	8F'J 8B-	.	.	.	16c	]
.	.	.	.	.	.	16GJJ	.
4CC: 4GG: 4F#X:	>	8r'	.	4B-XT	>	4B-X~^	pp
.	.	8E' 8A	.	.	.	.	.
.	.	.	.	.	.	(8qd-X/	.
4r	]	8r'	.	4A-XT)	]	8c'L)	.
.	.	8E' 8A	.	.	.	[8B-^J	.
=9	=9	=9	=9	=9	=9	=9	=9
*	*	*	*	*tremolo	*	*	*
4CC: 4AA-X: 4E-X: 4An:	pp	4r	.	(64d-XLLLL	pp	8B-L]	.
.	.	.	.	64e	.	.	.
.	.	.	.	64d-X	.	.	.
.	.	.	.	64e	.	.	.
.	.	.	.	64d-X	.	.	.
.	.	.	.	64e	.	.	.
.	.	.	.	64d-X	.	.	.
.	.	.	.	.	.	(8qdn/	.
.	.	.	.	64e	.	.	.
.	.	.	.	64d-X	.	8cJ	.
.	.	.	.	64e	.	.	.
.	.	.	.	.	.	.	.
.	.	.	.	64d-X	.	.	.
.	.	.	.	64e	.	.	.
.	.	.	.	64d-X	.	.	.
.	.	.	.	64e	.	.	.
.	.	.	.	64d-X	.	.	.
.	.	.	.	64e	.	.	.
4r	.	8F'L 8B-X	pp	64d-X	.	8BL	<
.	.	.	.	64e	.	.	.
.	.	.	.	64d-X	.	.	.
.	.	.	.	64e	.	.	.
.	.	.	.	64d-X	.	.	.
.	.	.	.	64e	.	.	.
.	.	.	.	64d-X	.	.	.
.	.	.	.	64e	.	.	.
.	.	8F'J 8B-	.	64d-X	.	16eL	.
.	.	.	.	64e	.	.	.
.	.	.	.	64d-X	.	.	.
.	.	.	.	64e	.	.	.
.	.	.	.	64d-X	.	16dnJJ	.
.	.	.	.	64e	.	.	.
.	.	.	.	64d-X	.	.	.
.	.	.	.	64e	.	.	.
4CC: 4GG: 4F#X:	.	8r'	.	64d-X	.	4B)	[ >
.	.	.	.	64e	.	.	.
.	.	.	.	64d-X	.	.	.
.	.	.	.	64e	.	.	.
.	.	.	.	64d-X	.	.	.
.	.	.	.	64e	.	.	.
.	.	.	.	64d-X	.	.	.
.	.	.	.	64e	.	.	.
.	.	8E' 8A	.	64d-X	.	.	.
.	.	.	.	64e	.	.	.
.	.	.	.	64d-X	.	.	.
.	.	.	.	64e	.	.	.
.	.	.	.	64d-X	.	.	.
.	.	.	.	64e	.	.	.
.	.	.	.	64d-X	.	.	.
.	.	.	.	64e	.	.	.
4r	.	8r'	.	64d-X	.	(8d^L	]
.	.	.	.	64e	.	.	.
.	.	.	.	64d-X	.	.	.
.	.	.	.	64e	.	.	.
.	.	.	.	64d-X	.	.	.
.	.	.	.	64e	.	.	.
.	.	.	.	64d-X	.	.	.
.	.	.	.	64e	.	.	.
.	.	8E' 8A	.	64d-X	.	8BJ	>
.	.	.	.	64e	.	.	.
.	.	.	.	64d-X	.	.	.
.	.	.	.	64e	.	.	.
.	.	.	.	64d-X	.	.	.
.	.	.	.	64e	.	.	.
.	.	.	.	64d-X	.	.	.
.	.	.	.	(64e)JJJJ	.	.	]
*	*	*	*	*Xtremolo	*	*	*
=||	=||	=||	=||	=||	=||	=||	=||
*-	*-	*-	*-	*-	*-	*-	*-
!!!system-decoration: [(s1,s2,s3,s4)]
!!!RDF**kern: > = above
!!!RDF**kern: < = below
!!!EED: Daniel Wright
!!!EEV: 2022/02/11
